public/assets/luts/lutCreatorJs.cube
#Generated by lutCreator.js
#Coded by SirSerch
#https://github.com/SirSerch/LutCreatorJs
TITLE lutCreatorJs_25
LUT_3D_SIZE 25
0.078431 0.078431 0.078431
0.078431 0.078431 0.078431
0.078431 0.078431 0.078431
0.078431 0.078431 0.078431
0.078431 0.078431 0.078431
0.078431 0.078431 0.078431
0.078431 0.078431 0.078431
0.078431 0.078431 0.078431
0.078431 0.078431 0.078431
0.078431 0.078431 0.078431
0.078431 0.078431 0.078431
0.078431 0.078431 0.078431
0.078431 0.078431 0.078431
0.078431 0.078431 0.078431
0.078431 0.078431 0.078431
0.078431 0.078431 0.078431
0.078431 0.078431 0.078431
0.078431 0.078431 0.078431
0.078431 0.078431 0.078431
0.078431 0.078431 0.078431
0.078431 0.078431 0.078431
0.078431 0.078431 0.078431
0.078431 0.078431 0.078431
0.078431 0.078431 0.078431
0.152941 0.129412 0.086275
0.078431 0.078431 0.078431
0.078431 0.078431 0.078431
0.078431 0.078431 0.078431
0.078431 0.078431 0.078431
0.078431 0.078431 0.078431
0.078431 0.078431 0.078431
0.078431 0.078431 0.078431
0.078431 0.078431 0.078431
0.078431 0.078431 0.078431
0.078431 0.078431 0.078431
0.078431 0.078431 0.078431
0.078431 0.078431 0.078431
0.078431 0.078431 0.078431
0.078431 0.078431 0.078431
0.078431 0.078431 0.078431
0.078431 0.078431 0.078431
0.078431 0.078431 0.078431
0.078431 0.078431 0.078431
0.078431 0.078431 0.078431
0.078431 0.078431 0.078431
0.078431 0.078431 0.078431
0.078431 0.078431 0.078431
0.078431 0.078431 0.078431
0.078431 0.078431 0.078431
0.145098 0.125490 0.082353
0.078431 0.078431 0.078431
0.078431 0.078431 0.078431
0.078431 0.078431 0.078431
0.078431 0.078431 0.078431
0.078431 0.078431 0.078431
0.078431 0.078431 0.078431
0.078431 0.078431 0.078431
0.078431 0.078431 0.078431
0.078431 0.078431 0.078431
0.078431 0.078431 0.078431
0.078431 0.078431 0.078431
0.078431 0.078431 0.078431
0.078431 0.078431 0.078431
0.078431 0.078431 0.078431
0.078431 0.078431 0.078431
0.078431 0.078431 0.078431
0.078431 0.078431 0.078431
0.078431 0.078431 0.078431
0.078431 0.078431 0.078431
0.078431 0.078431 0.078431
0.078431 0.078431 0.078431
0.078431 0.078431 0.078431
0.078431 0.078431 0.078431
0.078431 0.078431 0.078431
0.113725 0.101961 0.074510
0.078431 0.078431 0.078431
0.078431 0.078431 0.078431
0.078431 0.078431 0.078431
0.078431 0.078431 0.078431
0.078431 0.078431 0.078431
0.078431 0.078431 0.078431
0.078431 0.078431 0.078431
0.078431 0.078431 0.078431
0.078431 0.078431 0.078431
0.078431 0.078431 0.078431
0.078431 0.078431 0.078431
0.078431 0.078431 0.078431
0.078431 0.078431 0.078431
0.078431 0.078431 0.078431
0.078431 0.078431 0.078431
0.078431 0.078431 0.078431
0.078431 0.078431 0.078431
0.078431 0.078431 0.078431
0.078431 0.078431 0.078431
0.078431 0.078431 0.078431
0.078431 0.078431 0.078431
0.078431 0.078431 0.078431
0.078431 0.078431 0.078431
0.078431 0.078431 0.078431
0.078431 0.078431 0.078431
0.078431 0.078431 0.078431
0.078431 0.078431 0.078431
0.078431 0.078431 0.078431
0.078431 0.078431 0.078431
0.078431 0.078431 0.078431
0.078431 0.078431 0.078431
0.078431 0.078431 0.078431
0.078431 0.078431 0.078431
0.078431 0.078431 0.078431
0.078431 0.078431 0.078431
0.078431 0.078431 0.078431
0.078431 0.078431 0.078431
0.078431 0.078431 0.078431
0.078431 0.078431 0.078431
0.078431 0.078431 0.078431
0.078431 0.078431 0.078431
0.078431 0.078431 0.078431
0.078431 0.078431 0.078431
0.078431 0.078431 0.078431
0.078431 0.078431 0.078431
0.078431 0.078431 0.078431
0.078431 0.078431 0.078431
0.078431 0.078431 0.078431
0.078431 0.078431 0.078431
0.078431 0.078431 0.078431
0.078431 0.078431 0.078431
0.078431 0.078431 0.078431
0.078431 0.078431 0.078431
0.078431 0.078431 0.078431
0.078431 0.078431 0.078431
0.078431 0.078431 0.078431
0.078431 0.078431 0.078431
0.078431 0.078431 0.078431
0.078431 0.078431 0.078431
0.078431 0.078431 0.078431
0.078431 0.078431 0.078431
0.078431 0.078431 0.078431
0.078431 0.078431 0.078431
0.078431 0.078431 0.078431
0.078431 0.078431 0.078431
0.078431 0.078431 0.078431
0.078431 0.078431 0.078431
0.078431 0.078431 0.078431
0.078431 0.078431 0.078431
0.078431 0.078431 0.078431
0.078431 0.078431 0.078431
0.078431 0.078431 0.078431
0.101961 0.094118 0.074510
0.164706 0.149020 0.098039
0.266667 0.243137 0.168627
0.078431 0.078431 0.078431
0.078431 0.078431 0.078431
0.078431 0.078431 0.078431
0.078431 0.078431 0.078431
0.078431 0.078431 0.078431
0.078431 0.078431 0.078431
0.078431 0.078431 0.078431
0.078431 0.078431 0.078431
0.078431 0.078431 0.078431
0.078431 0.078431 0.078431
0.078431 0.078431 0.078431
0.078431 0.078431 0.078431
0.078431 0.078431 0.078431
0.078431 0.078431 0.078431
0.078431 0.078431 0.078431
0.078431 0.078431 0.078431
0.078431 0.078431 0.078431
0.078431 0.078431 0.078431
0.078431 0.078431 0.078431
0.078431 0.078431 0.078431
0.078431 0.078431 0.078431
0.086275 0.082353 0.078431
0.137255 0.121569 0.074510
0.196078 0.176471 0.117647
0.290196 0.266667 0.184314
0.078431 0.078431 0.078431
0.078431 0.078431 0.078431
0.078431 0.078431 0.078431
0.078431 0.078431 0.078431
0.078431 0.078431 0.078431
0.078431 0.078431 0.078431
0.078431 0.078431 0.078431
0.078431 0.078431 0.078431
0.078431 0.078431 0.078431
0.078431 0.078431 0.078431
0.078431 0.078431 0.078431
0.078431 0.078431 0.078431
0.078431 0.078431 0.078431
0.078431 0.078431 0.078431
0.078431 0.078431 0.078431
0.078431 0.078431 0.078431
0.078431 0.078431 0.078431
0.078431 0.078431 0.078431
0.078431 0.078431 0.078431
0.078431 0.078431 0.078431
0.078431 0.078431 0.078431
0.086275 0.086275 0.078431
0.133333 0.121569 0.070588
0.184314 0.172549 0.109804
0.270588 0.254902 0.172549
0.078431 0.078431 0.078431
0.078431 0.078431 0.078431
0.078431 0.078431 0.078431
0.078431 0.078431 0.078431
0.078431 0.078431 0.078431
0.078431 0.078431 0.078431
0.078431 0.078431 0.078431
0.078431 0.078431 0.078431
0.078431 0.078431 0.078431
0.078431 0.078431 0.078431
0.078431 0.078431 0.078431
0.078431 0.078431 0.078431
0.078431 0.078431 0.078431
0.078431 0.078431 0.078431
0.078431 0.078431 0.078431
0.078431 0.078431 0.078431
0.078431 0.078431 0.078431
0.078431 0.078431 0.078431
0.078431 0.078431 0.078431
0.078431 0.078431 0.078431
0.078431 0.078431 0.078431
0.078431 0.078431 0.078431
0.105882 0.101961 0.074510
0.156863 0.149020 0.090196
0.243137 0.227451 0.149020
0.078431 0.078431 0.078431
0.078431 0.078431 0.078431
0.078431 0.078431 0.078431
0.078431 0.078431 0.078431
0.078431 0.078431 0.078431
0.078431 0.078431 0.078431
0.078431 0.078431 0.078431
0.078431 0.078431 0.078431
0.078431 0.078431 0.078431
0.078431 0.078431 0.078431
0.078431 0.078431 0.078431
0.078431 0.078431 0.078431
0.078431 0.078431 0.078431
0.078431 0.078431 0.078431
0.078431 0.078431 0.078431
0.078431 0.078431 0.078431
0.078431 0.078431 0.078431
0.078431 0.078431 0.078431
0.078431 0.078431 0.078431
0.078431 0.078431 0.078431
0.078431 0.078431 0.078431
0.094118 0.086275 0.078431
0.125490 0.105882 0.074510
0.156863 0.129412 0.086275
0.203922 0.172549 0.125490
0.231373 0.274510 0.145098
0.227451 0.266667 0.141176
0.223529 0.262745 0.141176
0.223529 0.258824 0.141176
0.223529 0.258824 0.145098
0.231373 0.266667 0.149020
0.239216 0.266667 0.156863
0.243137 0.274510 0.160784
0.250980 0.278431 0.168627
0.262745 0.282353 0.180392
0.270588 0.286275 0.188235
0.278431 0.294118 0.192157
0.274510 0.286275 0.188235
0.262745 0.270588 0.176471
0.247059 0.254902 0.168627
0.243137 0.247059 0.160784
0.239216 0.239216 0.156863
0.239216 0.239216 0.156863
0.235294 0.235294 0.152941
0.247059 0.243137 0.160784
0.270588 0.266667 0.176471
0.305882 0.298039 0.200000
0.384314 0.372549 0.254902
0.498039 0.482353 0.341176
0.674510 0.654902 0.486275
0.113725 0.125490 0.070588
0.133333 0.149020 0.082353
0.149020 0.164706 0.098039
0.168627 0.188235 0.109804
0.188235 0.203922 0.125490
0.203922 0.219608 0.137255
0.215686 0.231373 0.149020
0.219608 0.235294 0.149020
0.227451 0.239216 0.156863
0.231373 0.243137 0.156863
0.239216 0.247059 0.156863
0.258824 0.262745 0.168627
0.270588 0.274510 0.180392
0.270588 0.274510 0.180392
0.274510 0.274510 0.180392
0.274510 0.274510 0.180392
0.282353 0.278431 0.184314
0.286275 0.282353 0.188235
0.301961 0.298039 0.200000
0.325490 0.317647 0.215686
0.368627 0.356863 0.243137
0.423529 0.411765 0.282353
0.521569 0.505882 0.352941
0.643137 0.623529 0.454902
0.780392 0.764706 0.611765
0.149020 0.164706 0.094118
0.168627 0.184314 0.109804
0.188235 0.207843 0.125490
0.211765 0.231373 0.141176
0.227451 0.247059 0.152941
0.239216 0.258824 0.164706
0.243137 0.266667 0.168627
0.250980 0.266667 0.172549
0.250980 0.270588 0.176471
0.254902 0.270588 0.176471
0.262745 0.274510 0.176471
0.270588 0.286275 0.184314
0.298039 0.305882 0.200000
0.309804 0.317647 0.207843
0.321569 0.329412 0.215686
0.325490 0.329412 0.219608
0.333333 0.337255 0.223529
0.345098 0.345098 0.231373
0.356863 0.356863 0.239216
0.380392 0.380392 0.254902
0.423529 0.419608 0.286275
0.478431 0.474510 0.325490
0.564706 0.556863 0.392157
0.678431 0.670588 0.494118
0.803922 0.796078 0.647059
0.172549 0.192157 0.113725
0.203922 0.223529 0.133333
0.223529 0.247059 0.149020
0.247059 0.270588 0.164706
0.258824 0.282353 0.176471
0.266667 0.290196 0.180392
0.274510 0.298039 0.188235
0.274510 0.301961 0.192157
0.278431 0.301961 0.196078
0.290196 0.313725 0.203922
0.298039 0.317647 0.211765
0.305882 0.325490 0.211765
0.325490 0.341176 0.223529
0.349020 0.364706 0.239216
0.368627 0.380392 0.250980
0.368627 0.380392 0.254902
0.376471 0.384314 0.258824
0.380392 0.384314 0.258824
0.380392 0.384314 0.258824
0.388235 0.392157 0.262745
0.411765 0.411765 0.278431
0.447059 0.447059 0.305882
0.525490 0.521569 0.364706
0.643137 0.639216 0.458824
0.796078 0.788235 0.639216
0.211765 0.231373 0.137255
0.250980 0.274510 0.168627
0.282353 0.305882 0.192157
0.298039 0.325490 0.207843
0.305882 0.333333 0.215686
0.309804 0.337255 0.215686
0.313725 0.337255 0.219608
0.317647 0.341176 0.223529
0.317647 0.337255 0.227451
0.325490 0.345098 0.231373
0.329412 0.349020 0.231373
0.341176 0.352941 0.235294
0.345098 0.356863 0.235294
0.356863 0.364706 0.239216
0.368627 0.368627 0.247059
0.376471 0.376471 0.250980
0.380392 0.376471 0.250980
0.388235 0.376471 0.254902
0.392157 0.376471 0.254902
0.427451 0.407843 0.278431
0.478431 0.454902 0.313725
0.533333 0.501961 0.352941
0.600000 0.564706 0.407843
0.682353 0.639216 0.478431
0.768627 0.725490 0.580392
0.772549 0.835294 0.643137
0.768627 0.835294 0.639216
0.764706 0.827451 0.631373
0.756863 0.819608 0.623529
0.749020 0.811765 0.615686
0.745098 0.807843 0.611765
0.764706 0.819608 0.631373
0.780392 0.835294 0.654902
0.800000 0.847059 0.678431
0.815686 0.858824 0.701961
0.827451 0.870588 0.717647
0.843137 0.878431 0.737255
0.858824 0.886275 0.756863
0.866667 0.894118 0.768627
0.870588 0.890196 0.764706
0.874510 0.894118 0.772549
0.878431 0.894118 0.768627
0.874510 0.890196 0.764706
0.874510 0.886275 0.760784
0.886275 0.894118 0.772549
0.905882 0.909804 0.800000
0.937255 0.941176 0.843137
0.980392 0.980392 0.913725
0.984314 0.984314 0.921569
0.988235 0.988235 0.925490
0.631373 0.678431 0.482353
0.643137 0.690196 0.498039
0.647059 0.694118 0.498039
0.643137 0.690196 0.494118
0.647059 0.694118 0.498039
0.647059 0.694118 0.498039
0.658824 0.705882 0.513725
0.682353 0.725490 0.541176
0.705882 0.745098 0.572549
0.733333 0.768627 0.607843
0.752941 0.784314 0.631373
0.780392 0.807843 0.658824
0.800000 0.827451 0.682353
0.819608 0.843137 0.701961
0.839216 0.858824 0.717647
0.870588 0.886275 0.756863
0.898039 0.909804 0.792157
0.913725 0.921569 0.815686
0.925490 0.933333 0.827451
0.945098 0.949020 0.854902
0.956863 0.956863 0.870588
0.964706 0.968627 0.886275
0.972549 0.972549 0.898039
0.976471 0.976471 0.909804
0.984314 0.984314 0.921569
0.647059 0.694118 0.498039
0.650980 0.698039 0.501961
0.650980 0.701961 0.505882
0.654902 0.701961 0.505882
0.654902 0.705882 0.505882
0.654902 0.701961 0.505882
0.654902 0.705882 0.505882
0.674510 0.725490 0.529412
0.701961 0.745098 0.564706
0.729412 0.768627 0.596078
0.752941 0.788235 0.623529
0.776471 0.807843 0.658824
0.800000 0.827451 0.682353
0.815686 0.843137 0.701961
0.839216 0.862745 0.725490
0.854902 0.874510 0.741176
0.886275 0.901961 0.780392
0.905882 0.917647 0.807843
0.925490 0.933333 0.831373
0.937255 0.945098 0.850980
0.952941 0.956863 0.866667
0.956863 0.964706 0.878431
0.968627 0.972549 0.894118
0.972549 0.976471 0.905882
0.980392 0.984314 0.917647
0.662745 0.709804 0.509804
0.662745 0.713725 0.513725
0.662745 0.713725 0.513725
0.666667 0.717647 0.517647
0.666667 0.717647 0.517647
0.670588 0.721569 0.517647
0.670588 0.721569 0.521569
0.670588 0.725490 0.521569
0.701961 0.749020 0.556863
0.729412 0.772549 0.592157
0.752941 0.792157 0.623529
0.772549 0.811765 0.650980
0.796078 0.831373 0.682353
0.819608 0.847059 0.705882
0.839216 0.866667 0.729412
0.854902 0.878431 0.745098
0.874510 0.894118 0.768627
0.898039 0.913725 0.800000
0.913725 0.925490 0.819608
0.929412 0.941176 0.839216
0.941176 0.949020 0.854902
0.949020 0.956863 0.870588
0.956863 0.964706 0.882353
0.964706 0.968627 0.890196
0.972549 0.976471 0.905882
0.658824 0.705882 0.509804
0.654902 0.705882 0.505882
0.654902 0.701961 0.505882
0.654902 0.701961 0.501961
0.650980 0.698039 0.501961
0.650980 0.698039 0.501961
0.650980 0.694118 0.501961
0.647059 0.694118 0.498039
0.650980 0.698039 0.505882
0.678431 0.717647 0.537255
0.701961 0.733333 0.568627
0.725490 0.752941 0.592157
0.749020 0.776471 0.615686
0.768627 0.788235 0.635294
0.788235 0.803922 0.654902
0.803922 0.815686 0.670588
0.819608 0.831373 0.686275
0.847059 0.850980 0.713725
0.870588 0.870588 0.741176
0.890196 0.886275 0.764706
0.901961 0.894118 0.780392
0.917647 0.905882 0.796078
0.929412 0.917647 0.811765
0.933333 0.921569 0.823529
0.945098 0.929412 0.835294
0.780392 0.839216 0.650980
0.776471 0.839216 0.647059
0.768627 0.831373 0.635294
0.764706 0.823529 0.631373
0.756863 0.819608 0.623529
0.752941 0.815686 0.615686
0.745098 0.803922 0.607843
0.737255 0.800000 0.600000
0.729412 0.792157 0.588235
0.741176 0.796078 0.603922
0.772549 0.823529 0.643137
0.803922 0.847059 0.682353
0.827451 0.866667 0.717647
0.854902 0.886275 0.752941
0.870588 0.898039 0.776471
0.886275 0.909804 0.800000
0.901961 0.921569 0.819608
0.917647 0.933333 0.835294
0.925490 0.937255 0.843137
0.933333 0.945098 0.854902
0.941176 0.952941 0.862745
0.945098 0.956863 0.870588
0.956863 0.960784 0.882353
0.964706 0.968627 0.894118
0.968627 0.972549 0.901961
0.650980 0.698039 0.501961
0.654902 0.701961 0.501961
0.650980 0.698039 0.501961
0.654902 0.701961 0.505882
0.654902 0.701961 0.505882
0.650980 0.698039 0.501961
0.650980 0.698039 0.501961
0.654902 0.701961 0.505882
0.654902 0.701961 0.505882
0.654902 0.701961 0.505882
0.678431 0.721569 0.533333
0.721569 0.756863 0.588235
0.764706 0.796078 0.643137
0.796078 0.823529 0.678431
0.827451 0.850980 0.713725
0.850980 0.870588 0.745098
0.874510 0.890196 0.772549
0.894118 0.909804 0.800000
0.909804 0.921569 0.815686
0.921569 0.933333 0.831373
0.933333 0.941176 0.847059
0.941176 0.949020 0.858824
0.949020 0.956863 0.870588
0.956863 0.960784 0.882353
0.964706 0.972549 0.894118
0.650980 0.698039 0.501961
0.658824 0.701961 0.505882
0.658824 0.705882 0.509804
0.662745 0.709804 0.509804
0.662745 0.709804 0.509804
0.666667 0.713725 0.513725
0.666667 0.713725 0.517647
0.666667 0.713725 0.513725
0.666667 0.717647 0.517647
0.666667 0.717647 0.517647
0.666667 0.713725 0.513725
0.694118 0.737255 0.549020
0.741176 0.780392 0.607843
0.780392 0.811765 0.658824
0.815686 0.839216 0.701961
0.843137 0.866667 0.737255
0.870588 0.890196 0.772549
0.894118 0.909804 0.800000
0.909804 0.925490 0.823529
0.921569 0.937255 0.839216
0.933333 0.945098 0.854902
0.941176 0.949020 0.862745
0.949020 0.956863 0.874510
0.956863 0.964706 0.886275
0.964706 0.972549 0.898039
0.666667 0.717647 0.517647
0.670588 0.717647 0.517647
0.674510 0.721569 0.521569
0.674510 0.725490 0.525490
0.678431 0.725490 0.525490
0.678431 0.729412 0.525490
0.678431 0.729412 0.525490
0.682353 0.729412 0.529412
0.678431 0.729412 0.529412
0.682353 0.733333 0.529412
0.682353 0.733333 0.529412
0.682353 0.729412 0.529412
0.713725 0.760784 0.572549
0.756863 0.796078 0.627451
0.803922 0.835294 0.690196
0.835294 0.862745 0.729412
0.870588 0.894118 0.772549
0.894118 0.913725 0.803922
0.913725 0.929412 0.827451
0.925490 0.941176 0.843137
0.933333 0.945098 0.854902
0.941176 0.949020 0.862745
0.949020 0.956863 0.874510
0.952941 0.964706 0.882353
0.960784 0.964706 0.890196
0.670588 0.713725 0.517647
0.666667 0.713725 0.513725
0.666667 0.709804 0.513725
0.666667 0.709804 0.513725
0.662745 0.705882 0.509804
0.662745 0.705882 0.509804
0.658824 0.701961 0.505882
0.654902 0.698039 0.501961
0.650980 0.694118 0.498039
0.647059 0.690196 0.498039
0.647059 0.690196 0.498039
0.643137 0.682353 0.494118
0.643137 0.678431 0.490196
0.682353 0.713725 0.537255
0.745098 0.768627 0.603922
0.788235 0.807843 0.654902
0.831373 0.843137 0.705882
0.866667 0.870588 0.749020
0.886275 0.886275 0.772549
0.898039 0.894118 0.784314
0.909804 0.905882 0.800000
0.917647 0.909804 0.807843
0.925490 0.917647 0.819608
0.933333 0.925490 0.827451
0.945098 0.929412 0.839216
0.078431 0.078431 0.078431
0.078431 0.078431 0.078431
0.078431 0.078431 0.078431
0.078431 0.078431 0.078431
0.074510 0.074510 0.074510
0.078431 0.078431 0.078431
0.078431 0.078431 0.078431
0.078431 0.078431 0.078431
0.078431 0.078431 0.078431
0.078431 0.078431 0.078431
0.078431 0.078431 0.078431
0.078431 0.078431 0.078431
0.078431 0.078431 0.078431
0.078431 0.078431 0.078431
0.078431 0.078431 0.078431
0.078431 0.078431 0.078431
0.078431 0.078431 0.078431
0.078431 0.078431 0.078431
0.078431 0.078431 0.078431
0.078431 0.078431 0.078431
0.078431 0.078431 0.078431
0.078431 0.078431 0.078431
0.078431 0.078431 0.078431
0.078431 0.078431 0.078431
0.129412 0.117647 0.070588
0.078431 0.078431 0.078431
0.078431 0.078431 0.078431
0.078431 0.078431 0.078431
0.078431 0.078431 0.078431
0.078431 0.078431 0.078431
0.078431 0.078431 0.078431
0.078431 0.078431 0.078431
0.078431 0.078431 0.078431
0.078431 0.078431 0.078431
0.078431 0.078431 0.078431
0.078431 0.078431 0.078431
0.078431 0.078431 0.078431
0.078431 0.078431 0.078431
0.078431 0.078431 0.078431
0.078431 0.078431 0.078431
0.078431 0.078431 0.078431
0.078431 0.078431 0.078431
0.078431 0.078431 0.078431
0.078431 0.078431 0.078431
0.078431 0.078431 0.078431
0.078431 0.078431 0.078431
0.078431 0.078431 0.078431
0.078431 0.078431 0.078431
0.078431 0.078431 0.078431
0.125490 0.113725 0.070588
0.078431 0.078431 0.078431
0.078431 0.078431 0.078431
0.078431 0.078431 0.078431
0.078431 0.078431 0.078431
0.078431 0.078431 0.078431
0.078431 0.078431 0.078431
0.078431 0.078431 0.078431
0.078431 0.078431 0.078431
0.078431 0.078431 0.078431
0.078431 0.078431 0.078431
0.078431 0.078431 0.078431
0.078431 0.078431 0.078431
0.078431 0.078431 0.078431
0.078431 0.078431 0.078431
0.078431 0.078431 0.078431
0.078431 0.078431 0.078431
0.078431 0.078431 0.078431
0.078431 0.078431 0.078431
0.078431 0.078431 0.078431
0.078431 0.078431 0.078431
0.078431 0.078431 0.078431
0.078431 0.078431 0.078431
0.078431 0.078431 0.078431
0.078431 0.078431 0.078431
0.094118 0.090196 0.074510
0.078431 0.078431 0.078431
0.078431 0.078431 0.078431
0.078431 0.078431 0.078431
0.078431 0.078431 0.078431
0.078431 0.078431 0.078431
0.078431 0.078431 0.078431
0.078431 0.078431 0.078431
0.078431 0.078431 0.078431
0.078431 0.078431 0.078431
0.078431 0.078431 0.078431
0.078431 0.078431 0.078431
0.078431 0.078431 0.078431
0.078431 0.078431 0.078431
0.078431 0.078431 0.078431
0.078431 0.078431 0.078431
0.078431 0.078431 0.078431
0.078431 0.078431 0.078431
0.074510 0.074510 0.074510
0.078431 0.078431 0.078431
0.078431 0.078431 0.078431
0.078431 0.078431 0.078431
0.078431 0.078431 0.078431
0.078431 0.078431 0.078431
0.078431 0.078431 0.078431
0.082353 0.082353 0.078431
0.078431 0.078431 0.078431
0.078431 0.078431 0.078431
0.078431 0.078431 0.078431
0.078431 0.078431 0.078431
0.078431 0.078431 0.078431
0.078431 0.078431 0.078431
0.078431 0.078431 0.078431
0.078431 0.078431 0.078431
0.078431 0.078431 0.078431
0.078431 0.078431 0.078431
0.078431 0.078431 0.078431
0.078431 0.078431 0.078431
0.078431 0.078431 0.078431
0.078431 0.078431 0.078431
0.078431 0.078431 0.078431
0.078431 0.078431 0.078431
0.078431 0.078431 0.078431
0.078431 0.078431 0.078431
0.078431 0.078431 0.078431
0.078431 0.078431 0.078431
0.074510 0.074510 0.074510
0.078431 0.078431 0.078431
0.078431 0.078431 0.078431
0.078431 0.078431 0.078431
0.078431 0.078431 0.078431
0.078431 0.078431 0.078431
0.078431 0.078431 0.078431
0.078431 0.078431 0.078431
0.078431 0.078431 0.078431
0.078431 0.078431 0.078431
0.078431 0.078431 0.078431
0.078431 0.078431 0.078431
0.078431 0.078431 0.078431
0.078431 0.078431 0.078431
0.078431 0.078431 0.078431
0.078431 0.078431 0.078431
0.078431 0.078431 0.078431
0.078431 0.078431 0.078431
0.078431 0.078431 0.078431
0.078431 0.078431 0.078431
0.078431 0.078431 0.078431
0.078431 0.078431 0.078431
0.074510 0.074510 0.074510
0.078431 0.078431 0.078431
0.078431 0.078431 0.078431
0.078431 0.078431 0.078431
0.078431 0.078431 0.078431
0.078431 0.078431 0.078431
0.133333 0.121569 0.074510
0.219608 0.207843 0.137255
0.078431 0.078431 0.078431
0.078431 0.078431 0.078431
0.078431 0.078431 0.078431
0.078431 0.078431 0.078431
0.078431 0.078431 0.078431
0.078431 0.078431 0.078431
0.078431 0.078431 0.078431
0.078431 0.078431 0.078431
0.078431 0.078431 0.078431
0.078431 0.078431 0.078431
0.078431 0.078431 0.078431
0.078431 0.078431 0.078431
0.078431 0.078431 0.078431
0.078431 0.078431 0.078431
0.078431 0.078431 0.078431
0.078431 0.078431 0.078431
0.078431 0.078431 0.078431
0.078431 0.078431 0.078431
0.078431 0.078431 0.078431
0.078431 0.078431 0.078431
0.078431 0.078431 0.078431
0.078431 0.078431 0.078431
0.105882 0.101961 0.074510
0.160784 0.152941 0.098039
0.247059 0.235294 0.156863
0.078431 0.078431 0.078431
0.078431 0.078431 0.078431
0.078431 0.078431 0.078431
0.078431 0.078431 0.078431
0.078431 0.078431 0.078431
0.078431 0.078431 0.078431
0.078431 0.078431 0.078431
0.078431 0.078431 0.078431
0.078431 0.078431 0.078431
0.078431 0.078431 0.078431
0.078431 0.078431 0.078431
0.078431 0.078431 0.078431
0.078431 0.078431 0.078431
0.078431 0.078431 0.078431
0.078431 0.078431 0.078431
0.078431 0.078431 0.078431
0.078431 0.078431 0.078431
0.078431 0.078431 0.078431
0.078431 0.078431 0.078431
0.078431 0.078431 0.078431
0.078431 0.078431 0.078431
0.078431 0.078431 0.078431
0.101961 0.098039 0.074510
0.149020 0.141176 0.086275
0.227451 0.219608 0.145098
0.078431 0.078431 0.078431
0.078431 0.078431 0.078431
0.078431 0.078431 0.078431
0.078431 0.078431 0.078431
0.078431 0.078431 0.078431
0.078431 0.078431 0.078431
0.078431 0.078431 0.078431
0.078431 0.078431 0.078431
0.078431 0.078431 0.078431
0.078431 0.078431 0.078431
0.078431 0.078431 0.078431
0.078431 0.078431 0.078431
0.078431 0.078431 0.078431
0.078431 0.078431 0.078431
0.078431 0.078431 0.078431
0.078431 0.078431 0.078431
0.078431 0.078431 0.078431
0.078431 0.078431 0.078431
0.078431 0.078431 0.078431
0.078431 0.078431 0.078431
0.078431 0.078431 0.078431
0.078431 0.078431 0.078431
0.105882 0.105882 0.070588
0.149020 0.145098 0.090196
0.227451 0.219608 0.145098
0.078431 0.078431 0.078431
0.078431 0.078431 0.078431
0.078431 0.078431 0.078431
0.078431 0.078431 0.078431
0.078431 0.078431 0.078431
0.078431 0.078431 0.078431
0.078431 0.078431 0.078431
0.078431 0.078431 0.078431
0.078431 0.078431 0.078431
0.078431 0.078431 0.078431
0.078431 0.078431 0.078431
0.078431 0.078431 0.078431
0.078431 0.078431 0.078431
0.074510 0.074510 0.074510
0.078431 0.078431 0.078431
0.078431 0.078431 0.078431
0.078431 0.078431 0.078431
0.078431 0.078431 0.078431
0.078431 0.078431 0.078431
0.078431 0.078431 0.078431
0.078431 0.078431 0.078431
0.101961 0.094118 0.078431
0.129412 0.113725 0.070588
0.160784 0.141176 0.094118
0.211765 0.184314 0.129412
0.172549 0.207843 0.101961
0.172549 0.207843 0.101961
0.164706 0.200000 0.098039
0.168627 0.200000 0.098039
0.172549 0.203922 0.105882
0.172549 0.203922 0.105882
0.176471 0.203922 0.109804
0.180392 0.207843 0.113725
0.184314 0.207843 0.117647
