public/assets/luts/lutCreatorJs.cube
#Generated by lutCreator.js
#Coded by SirSerch
#https://github.com/SirSerch/LutCreatorJs
TITLE lutCreatorJs_25
LUT_3D_SIZE 9
0.078431 0.078431 0.078431
0.078431 0.078431 0.078431
0.078431 0.078431 0.078431
0.078431 0.078431 0.078431
0.078431 0.078431 0.078431
0.078431 0.078431 0.078431
0.078431 0.078431 0.078431
0.078431 0.078431 0.078431
0.152941 0.129412 0.086275
0.078431 0.078431 0.078431
0.078431 0.078431 0.078431
0.078431 0.078431 0.078431
0.078431 0.078431 0.078431
0.078431 0.078431 0.078431
0.078431 0.078431 0.078431
0.078431 0.078431 0.078431
0.078431 0.078431 0.078431
0.078431 0.078431 0.078431
0.078431 0.078431 0.078431
0.078431 0.078431 0.078431
0.078431 0.078431 0.078431
0.078431 0.078431 0.078431
0.078431 0.078431 0.078431
0.078431 0.078431 0.078431
0.078431 0.078431 0.078431
0.086275 0.082353 0.078431
0.290196 0.266667 0.184314
0.078431 0.078431 0.078431
0.078431 0.078431 0.078431
0.078431 0.078431 0.078431
0.078431 0.078431 0.078431
0.078431 0.078431 0.078431
0.078431 0.078431 0.078431
0.078431 0.078431 0.078431
0.094118 0.086275 0.078431
0.203922 0.172549 0.125490
0.149020 0.164706 0.094118
0.211765 0.231373 0.141176
0.243137 0.266667 0.168627
0.254902 0.270588 0.176471
0.298039 0.305882 0.200000
0.325490 0.329412 0.219608
0.356863 0.356863 0.239216
0.478431 0.474510 0.325490
0.803922 0.796078 0.647059
0.772549 0.835294 0.643137
0.756863 0.819608 0.623529
0.764706 0.819608 0.631373
0.815686 0.858824 0.701961
0.858824 0.886275 0.756863
0.874510 0.894118 0.772549
0.874510 0.886275 0.760784
0.937255 0.941176 0.843137
0.988235 0.988235 0.925490
0.662745 0.709804 0.509804
0.666667 0.717647 0.517647
0.670588 0.721569 0.521569
0.729412 0.772549 0.592157
0.796078 0.831373 0.682353
0.854902 0.878431 0.745098
0.913725 0.925490 0.819608
0.949020 0.956863 0.870588
0.972549 0.976471 0.905882
0.650980 0.698039 0.501961
0.654902 0.701961 0.505882
0.650980 0.698039 0.501961
0.654902 0.701961 0.505882
0.764706 0.796078 0.643137
0.850980 0.870588 0.745098
0.909804 0.921569 0.815686
0.941176 0.949020 0.858824
0.964706 0.972549 0.894118
0.670588 0.713725 0.517647
0.666667 0.709804 0.513725
0.658824 0.701961 0.505882
0.647059 0.690196 0.498039
0.643137 0.678431 0.490196
0.788235 0.807843 0.654902
0.886275 0.886275 0.772549
0.917647 0.909804 0.807843
0.945098 0.929412 0.839216
0.078431 0.078431 0.078431
0.078431 0.078431 0.078431
0.078431 0.078431 0.078431
0.078431 0.078431 0.078431
0.078431 0.078431 0.078431
0.078431 0.078431 0.078431
0.078431 0.078431 0.078431
0.078431 0.078431 0.078431
0.082353 0.078431 0.074510
0.078431 0.078431 0.078431
0.078431 0.078431 0.078431
0.078431 0.078431 0.078431
0.078431 0.078431 0.078431
0.078431 0.078431 0.078431
0.078431 0.078431 0.078431
0.078431 0.078431 0.078431
0.078431 0.078431 0.078431
0.078431 0.078431 0.078431
0.078431 0.078431 0.078431
0.078431 0.078431 0.078431
0.078431 0.078431 0.078431
0.078431 0.078431 0.078431
0.078431 0.078431 0.078431
0.078431 0.078431 0.078431
0.078431 0.078431 0.078431
0.078431 0.078431 0.078431
0.172549 0.168627 0.109804
0.078431 0.078431 0.078431
0.078431 0.078431 0.078431
0.078431 0.078431 0.078431
0.078431 0.078431 0.078431
0.078431 0.078431 0.078431
0.078431 0.078431 0.078431
0.078431 0.078431 0.078431
0.105882 0.101961 0.074510
0.200000 0.184314 0.125490
0.101961 0.117647 0.070588
0.137255 0.160784 0.082353
0.164706 0.188235 0.105882
0.184314 0.203922 0.121569
0.203922 0.219608 0.141176
0.219608 0.235294 0.152941
0.247059 0.258824 0.172549
0.352941 0.360784 0.247059
0.596078 0.603922 0.435294
0.741176 0.815686 0.607843
0.713725 0.788235 0.576471
0.701961 0.772549 0.560784
0.713725 0.776471 0.576471
0.725490 0.772549 0.592157
0.737255 0.768627 0.611765
0.749020 0.768627 0.611765
0.831373 0.843137 0.705882
0.984314 0.984314 0.925490
0.650980 0.709804 0.498039
0.698039 0.756863 0.556863
0.701961 0.756863 0.556863
0.745098 0.796078 0.615686
0.800000 0.839216 0.686275
0.839216 0.870588 0.733333
0.913725 0.933333 0.823529
0.949020 0.960784 0.874510
0.972549 0.980392 0.909804
0.674510 0.729412 0.529412
0.678431 0.733333 0.533333
0.678431 0.733333 0.533333
0.674510 0.729412 0.529412
0.772549 0.811765 0.654902
0.854902 0.878431 0.756863
0.905882 0.921569 0.823529
0.937255 0.949020 0.862745
0.960784 0.968627 0.898039
0.694118 0.745098 0.549020
0.690196 0.741176 0.545098
0.690196 0.741176 0.541176
0.682353 0.729412 0.537255
0.674510 0.717647 0.525490
0.803922 0.823529 0.682353
0.894118 0.898039 0.792157
0.921569 0.917647 0.823529
0.945098 0.937255 0.850980
0.078431 0.078431 0.078431
0.078431 0.078431 0.078431
0.078431 0.078431 0.078431
0.078431 0.078431 0.078431
0.078431 0.078431 0.078431
0.078431 0.078431 0.078431
0.078431 0.078431 0.078431
0.078431 0.078431 0.078431
0.101961 0.101961 0.074510
0.078431 0.078431 0.078431
0.078431 0.078431 0.078431
0.078431 0.078431 0.078431
0.078431 0.078431 0.078431
0.078431 0.078431 0.078431
0.078431 0.078431 0.078431
0.078431 0.078431 0.078431
0.078431 0.078431 0.078431
0.086275 0.086275 0.078431
0.078431 0.078431 0.078431
0.078431 0.078431 0.078431
0.078431 0.078431 0.078431
0.078431 0.078431 0.078431
0.078431 0.078431 0.078431
0.078431 0.078431 0.078431
0.078431 0.078431 0.078431
0.078431 0.078431 0.078431
0.184314 0.188235 0.133333
0.078431 0.078431 0.078431
0.078431 0.078431 0.078431
0.078431 0.078431 0.078431
0.078431 0.078431 0.078431
0.078431 0.078431 0.078431
0.078431 0.078431 0.078431
0.090196 0.090196 0.078431
0.133333 0.133333 0.090196
0.231373 0.219608 0.160784
0.101961 0.129412 0.070588
0.133333 0.164706 0.082353
0.160784 0.196078 0.105882
0.176471 0.203922 0.117647
0.192157 0.219608 0.133333
0.207843 0.227451 0.149020
0.250980 0.262745 0.188235
0.356863 0.368627 0.266667
0.584314 0.592157 0.439216
0.623529 0.717647 0.482353
0.611765 0.701961 0.466667
0.607843 0.694118 0.466667
0.627451 0.701961 0.486275
0.643137 0.701961 0.505882
0.635294 0.678431 0.501961
0.650980 0.678431 0.521569
0.760784 0.776471 0.635294
0.976471 0.976471 0.913725
0.588235 0.654902 0.443137
0.678431 0.745098 0.541176
0.686275 0.752941 0.552941
0.729412 0.784314 0.600000
0.752941 0.800000 0.635294
0.811765 0.843137 0.705882
0.882353 0.901961 0.792157
0.933333 0.941176 0.850980
0.956863 0.960784 0.886275
0.654902 0.717647 0.513725
0.654902 0.717647 0.513725
0.654902 0.717647 0.513725
0.654902 0.717647 0.517647
0.752941 0.796078 0.635294
0.823529 0.850980 0.729412
0.882353 0.898039 0.796078
0.921569 0.933333 0.843137
0.945098 0.952941 0.878431
0.682353 0.737255 0.537255
0.678431 0.737255 0.537255
0.678431 0.733333 0.533333
0.674510 0.725490 0.529412
0.666667 0.717647 0.521569
0.784314 0.807843 0.674510
0.882353 0.886275 0.780392
0.913725 0.905882 0.815686
0.937255 0.921569 0.839216
0.078431 0.078431 0.078431
0.078431 0.078431 0.078431
0.078431 0.078431 0.078431
0.078431 0.078431 0.078431
0.078431 0.078431 0.078431
0.078431 0.078431 0.078431
0.078431 0.078431 0.078431
0.078431 0.078431 0.078431
0.105882 0.109804 0.090196
0.078431 0.078431 0.078431
0.078431 0.078431 0.078431
0.078431 0.078431 0.078431
0.078431 0.078431 0.078431
0.078431 0.078431 0.078431
0.078431 0.078431 0.078431
0.078431 0.078431 0.078431
0.078431 0.078431 0.078431
0.086275 0.090196 0.074510
0.078431 0.078431 0.078431
0.078431 0.078431 0.078431
0.078431 0.078431 0.078431
0.078431 0.078431 0.078431
0.078431 0.078431 0.078431
0.078431 0.078431 0.078431
0.078431 0.078431 0.078431
0.082353 0.086275 0.078431
0.192157 0.200000 0.160784
0.078431 0.078431 0.078431
0.078431 0.078431 0.078431
0.078431 0.078431 0.078431
0.078431 0.078431 0.078431
0.078431 0.078431 0.078431
0.078431 0.078431 0.078431
0.098039 0.109804 0.074510
0.145098 0.149020 0.117647
0.243137 0.235294 0.188235
0.109804 0.149020 0.074510
0.149020 0.192157 0.105882
0.180392 0.223529 0.133333
0.192157 0.235294 0.141176
0.203922 0.243137 0.156863
0.219608 0.250980 0.168627
0.258824 0.282353 0.203922
0.360784 0.380392 0.294118
0.611765 0.627451 0.498039
0.639216 0.752941 0.525490
0.627451 0.737255 0.513725
0.619608 0.725490 0.501961
0.631373 0.721569 0.513725
0.650980 0.725490 0.537255
0.650980 0.709804 0.537255
0.658824 0.698039 0.549020
0.780392 0.800000 0.690196
0.968627 0.972549 0.913725
0.619608 0.701961 0.494118
0.658824 0.741176 0.537255
0.678431 0.756863 0.560784
0.729412 0.796078 0.619608
0.776471 0.831373 0.678431
0.823529 0.862745 0.733333
0.866667 0.890196 0.788235
0.921569 0.933333 0.850980
0.952941 0.960784 0.894118
0.627451 0.709804 0.505882
0.627451 0.709804 0.505882
0.631373 0.709804 0.505882
0.635294 0.713725 0.509804
0.733333 0.788235 0.627451
0.815686 0.850980 0.725490
0.874510 0.894118 0.807843
0.921569 0.933333 0.858824
0.945098 0.952941 0.890196
0.670588 0.737255 0.537255
0.666667 0.733333 0.533333
0.666667 0.733333 0.533333
0.658824 0.725490 0.529412
0.650980 0.713725 0.521569
0.764706 0.796078 0.666667
0.870588 0.878431 0.788235
0.909804 0.905882 0.831373
0.933333 0.925490 0.850980
0.078431 0.078431 0.078431
0.078431 0.078431 0.078431
0.078431 0.078431 0.078431
0.078431 0.078431 0.078431
0.078431 0.078431 0.078431
0.078431 0.078431 0.078431
0.078431 0.078431 0.078431
0.078431 0.078431 0.078431
0.074510 0.074510 0.074510
0.078431 0.078431 0.078431
0.078431 0.078431 0.078431
0.078431 0.078431 0.078431
0.078431 0.078431 0.078431
0.078431 0.078431 0.078431
0.078431 0.078431 0.078431
0.078431 0.078431 0.078431
0.078431 0.078431 0.078431
0.078431 0.078431 0.078431
0.078431 0.078431 0.078431
0.078431 0.078431 0.078431
0.078431 0.078431 0.078431
0.078431 0.078431 0.078431
0.078431 0.078431 0.078431
0.078431 0.078431 0.078431
0.078431 0.078431 0.078431
0.078431 0.078431 0.078431
0.152941 0.168627 0.141176
0.078431 0.078431 0.078431
0.078431 0.078431 0.078431
0.078431 0.078431 0.078431
0.078431 0.078431 0.078431
0.078431 0.078431 0.078431
0.078431 0.086275 0.078431
0.094118 0.113725 0.078431
0.145098 0.156863 0.129412
0.223529 0.223529 0.200000
0.094118 0.152941 0.082353
0.137255 0.203922 0.117647
0.164706 0.231373 0.141176
0.180392 0.239216 0.149020
0.196078 0.250980 0.164706
0.207843 0.254902 0.172549
0.239216 0.278431 0.200000
0.337255 0.368627 0.286275
0.549020 0.576471 0.478431
0.650980 0.788235 0.572549
0.627451 0.764706 0.549020
0.600000 0.733333 0.517647
0.600000 0.721569 0.513725
0.615686 0.717647 0.529412
0.619608 0.701961 0.533333
0.639216 0.701961 0.556863
0.760784 0.792157 0.690196
0.960784 0.968627 0.925490
0.611765 0.721569 0.509804
0.631373 0.741176 0.533333
0.666667 0.764706 0.572549
0.709804 0.796078 0.619608
0.764706 0.835294 0.682353
0.811765 0.862745 0.733333
0.858824 0.894118 0.792157
0.909804 0.929412 0.854902
0.952941 0.960784 0.909804
0.588235 0.694118 0.490196
0.592157 0.698039 0.490196
0.592157 0.698039 0.494118
0.596078 0.701961 0.494118
0.698039 0.772549 0.607843
0.792157 0.843137 0.717647
0.862745 0.890196 0.800000
0.917647 0.933333 0.874510
0.945098 0.952941 0.909804
0.643137 0.733333 0.529412
0.643137 0.729412 0.529412
0.639216 0.725490 0.525490
0.635294 0.717647 0.521569
0.627451 0.709804 0.513725
0.713725 0.768627 0.619608
0.854902 0.866667 0.792157
0.909804 0.909804 0.850980
0.929412 0.921569 0.866667
0.078431 0.078431 0.078431
0.078431 0.078431 0.078431
0.078431 0.078431 0.078431
0.078431 0.078431 0.078431
0.078431 0.078431 0.078431
0.078431 0.078431 0.078431
0.078431 0.078431 0.078431
0.078431 0.078431 0.078431
0.070588 0.086275 0.082353
0.078431 0.078431 0.078431
0.078431 0.078431 0.078431
0.078431 0.078431 0.078431
0.078431 0.078431 0.078431
0.078431 0.078431 0.078431
0.078431 0.078431 0.078431
0.078431 0.078431 0.078431
0.078431 0.078431 0.078431
0.078431 0.082353 0.078431
0.078431 0.078431 0.078431
0.078431 0.078431 0.078431
0.078431 0.078431 0.078431
0.078431 0.078431 0.078431
0.078431 0.078431 0.078431
0.078431 0.078431 0.078431
0.078431 0.078431 0.078431
0.074510 0.082353 0.078431
0.098039 0.133333 0.109804
0.078431 0.078431 0.078431
0.078431 0.078431 0.078431
0.078431 0.078431 0.078431
0.078431 0.078431 0.078431
0.078431 0.078431 0.078431
0.074510 0.086275 0.078431
0.070588 0.109804 0.078431
0.129412 0.152941 0.129412
0.211765 0.223529 0.207843
0.054902 0.113725 0.074510
0.039216 0.129412 0.070588
0.050980 0.145098 0.078431
0.070588 0.160784 0.090196
0.101961 0.184314 0.113725
0.141176 0.211765 0.141176
0.200000 0.266667 0.192157
0.282353 0.341176 0.266667
0.411765 0.462745 0.384314
0.376471 0.576471 0.360784
0.372549 0.568627 0.356863
0.376471 0.560784 0.356863
0.380392 0.545098 0.360784
0.384314 0.525490 0.356863
0.388235 0.505882 0.360784
0.458824 0.552941 0.419608
0.607843 0.674510 0.560784
0.827451 0.850980 0.788235
0.494118 0.650980 0.443137
0.529412 0.686275 0.474510
0.572549 0.717647 0.513725
0.627451 0.752941 0.568627
0.701961 0.803922 0.643137
0.780392 0.858824 0.725490
0.835294 0.890196 0.788235
0.890196 0.921569 0.850980
0.941176 0.952941 0.913725
0.529412 0.682353 0.474510
0.533333 0.686275 0.478431
0.533333 0.682353 0.474510
0.537255 0.686275 0.478431
0.619608 0.741176 0.560784
0.737255 0.815686 0.682353
0.831373 0.874510 0.784314
0.901961 0.925490 0.866667
0.937255 0.952941 0.913725
0.603922 0.725490 0.521569
0.603922 0.725490 0.521569
0.603922 0.721569 0.517647
0.600000 0.713725 0.513725
0.588235 0.701961 0.505882
0.611765 0.709804 0.533333
0.823529 0.847059 0.776471
0.909804 0.913725 0.882353
0.925490 0.921569 0.890196
0.078431 0.078431 0.078431
0.078431 0.078431 0.078431
0.078431 0.078431 0.078431
0.078431 0.078431 0.078431
0.066667 0.094118 0.090196
0.031373 0.113725 0.101961
0.000000 0.133333 0.113725
0.000000 0.160784 0.129412
0.015686 0.203922 0.172549
0.078431 0.078431 0.078431
0.078431 0.078431 0.078431
0.078431 0.078431 0.078431
0.078431 0.078431 0.078431
0.062745 0.094118 0.086275
0.031373 0.121569 0.101961
0.000000 0.133333 0.105882
0.000000 0.152941 0.113725
0.015686 0.200000 0.156863
0.023529 0.121569 0.101961
0.019608 0.125490 0.105882
0.007843 0.129412 0.109804
0.000000 0.141176 0.113725
0.000000 0.152941 0.121569
0.000000 0.160784 0.121569
0.000000 0.176471 0.137255
0.011765 0.203922 0.164706
0.113725 0.258824 0.219608
0.000000 0.168627 0.109804
0.000000 0.176471 0.109804
0.000000 0.180392 0.113725
0.000000 0.184314 0.117647
0.000000 0.192157 0.129412
0.000000 0.200000 0.141176
0.070588 0.207843 0.160784
0.141176 0.231373 0.196078
0.247059 0.298039 0.278431
0.000000 0.247059 0.164706
0.000000 0.254902 0.168627
0.000000 0.258824 0.172549
0.000000 0.270588 0.184314
0.047059 0.282353 0.196078
0.109804 0.298039 0.215686
0.168627 0.325490 0.247059
0.243137 0.372549 0.298039
0.372549 0.474510 0.403922
0.094118 0.517647 0.321569
0.109804 0.513725 0.321569
0.125490 0.494118 0.317647
0.156863 0.478431 0.313725
0.200000 0.470588 0.321569
0.262745 0.486275 0.349020
0.380392 0.552941 0.431373
0.541176 0.662745 0.560784
0.749020 0.803922 0.745098
0.427451 0.682353 0.474510
0.470588 0.713725 0.505882
0.521569 0.741176 0.549020
0.592157 0.776471 0.600000
0.674510 0.823529 0.670588
0.752941 0.866667 0.741176
0.811765 0.894118 0.796078
0.878431 0.925490 0.858824
0.941176 0.960784 0.929412
0.403922 0.670588 0.462745
0.407843 0.674510 0.466667
0.411765 0.674510 0.466667
0.450980 0.698039 0.494118
0.572549 0.756863 0.584314
0.686275 0.811765 0.678431
0.796078 0.870588 0.784314
0.890196 0.925490 0.874510
0.945098 0.968627 0.941176
0.533333 0.725490 0.517647
0.529412 0.721569 0.513725
0.529412 0.717647 0.513725
0.529412 0.709804 0.509804
0.525490 0.698039 0.505882
0.521569 0.686275 0.498039
0.756863 0.811765 0.729412
0.913725 0.917647 0.905882
0.941176 0.941176 0.929412
0.000000 0.207843 0.227451
0.000000 0.219608 0.239216
0.000000 0.235294 0.250980
0.000000 0.254902 0.266667
0.000000 0.290196 0.294118
0.000000 0.317647 0.317647
0.000000 0.352941 0.345098
0.000000 0.392157 0.376471
0.000000 0.454902 0.431373
0.000000 0.266667 0.239216
0.000000 0.274510 0.247059
0.000000 0.286275 0.254902
0.000000 0.309804 0.270588
0.000000 0.325490 0.282353
0.000000 0.345098 0.290196
0.000000 0.364706 0.301961
0.000000 0.396078 0.329412
0.000000 0.447059 0.376471
0.000000 0.364706 0.309804
0.000000 0.376471 0.317647
0.000000 0.380392 0.321569
0.000000 0.380392 0.325490
0.000000 0.384314 0.337255
0.000000 0.407843 0.356863
0.000000 0.435294 0.376471
0.000000 0.474510 0.407843
0.000000 0.533333 0.462745
0.000000 0.427451 0.321569
0.000000 0.443137 0.333333
0.000000 0.447059 0.337255
0.000000 0.454902 0.345098
0.000000 0.458824 0.356863
0.000000 0.458824 0.364706
0.000000 0.462745 0.384314
0.094118 0.482353 0.423529
0.305882 0.533333 0.494118
0.000000 0.580392 0.439216
0.000000 0.596078 0.450980
0.000000 0.596078 0.450980
0.000000 0.603922 0.458824
0.000000 0.623529 0.478431
0.000000 0.635294 0.498039
0.062745 0.662745 0.533333
0.278431 0.694118 0.576471
0.490196 0.756863 0.662745
0.129412 0.815686 0.607843
0.133333 0.811765 0.607843
0.172549 0.807843 0.611765
0.231373 0.803922 0.615686
0.301961 0.803922 0.631373
0.427451 0.815686 0.666667
0.556863 0.835294 0.713725
0.678431 0.862745 0.772549
0.819608 0.917647 0.862745
0.529412 0.854902 0.678431
0.545098 0.858824 0.686275
0.572549 0.862745 0.698039
0.623529 0.874510 0.721569
0.674510 0.886275 0.749020
0.745098 0.909804 0.792157
0.823529 0.937255 0.850980
0.894118 0.960784 0.905882
0.960784 0.988235 0.964706
0.411765 0.819608 0.627451
0.411765 0.815686 0.623529
0.411765 0.815686 0.623529
0.501961 0.831373 0.654902
0.600000 0.850980 0.698039
0.694118 0.874510 0.752941
0.815686 0.921569 0.839216
0.913725 0.964706 0.917647
0.964706 0.992157 0.972549
0.431373 0.772549 0.564706
0.431373 0.772549 0.564706
0.427451 0.768627 0.560784
0.423529 0.760784 0.556863
0.419608 0.752941 0.552941
0.415686 0.741176 0.549020
0.662745 0.807843 0.698039
0.913725 0.929412 0.913725
0.980392 0.980392 0.980392
0.000000 0.592157 0.666667
0.000000 0.603922 0.674510
0.000000 0.627451 0.686275
0.000000 0.650980 0.701961
0.000000 0.678431 0.721569
0.000000 0.705882 0.737255
0.000000 0.729412 0.749020
0.000000 0.760784 0.760784
0.000000 0.800000 0.780392
0.000000 0.698039 0.666667
0.000000 0.705882 0.674510
0.000000 0.721569 0.686275
0.000000 0.737255 0.694118
0.000000 0.760784 0.709804
0.000000 0.780392 0.721569
0.000000 0.796078 0.717647
0.000000 0.807843 0.709804
0.000000 0.819608 0.701961
0.000000 0.776471 0.737255
0.000000 0.780392 0.741176
0.000000 0.788235 0.745098
0.000000 0.796078 0.749020
0.000000 0.811765 0.760784
0.000000 0.823529 0.764706
0.000000 0.831373 0.760784
0.000000 0.839216 0.756863
0.000000 0.854902 0.756863
0.000000 0.843137 0.682353
0.000000 0.843137 0.678431
0.000000 0.843137 0.678431
0.000000 0.839216 0.682353
0.000000 0.835294 0.686275
0.000000 0.835294 0.698039
0.000000 0.839216 0.721569
0.168627 0.839216 0.752941
0.470588 0.847059 0.800000
0.000000 0.890196 0.725490
0.000000 0.890196 0.725490
0.000000 0.886275 0.725490
0.000000 0.890196 0.733333
0.000000 0.890196 0.741176
0.062745 0.890196 0.752941
0.364706 0.894118 0.772549
0.533333 0.905882 0.800000
0.658824 0.917647 0.831373
0.423529 0.949020 0.784314
0.419608 0.949020 0.784314
0.419608 0.945098 0.788235
0.411765 0.941176 0.788235
0.439216 0.937255 0.796078
0.545098 0.941176 0.815686
0.670588 0.945098 0.847059
0.839216 0.972549 0.909804
0.905882 0.984314 0.941176
0.541176 0.937255 0.772549
0.556863 0.937255 0.776471
0.588235 0.937255 0.784314
0.627451 0.941176 0.796078
0.662745 0.945098 0.811765
0.690196 0.945098 0.823529
0.776471 0.952941 0.862745
0.909804 0.976471 0.933333
0.960784 0.992157 0.968627
0.580392 0.945098 0.788235
0.580392 0.941176 0.784314
0.580392 0.941176 0.784314
0.580392 0.937255 0.780392
0.662745 0.949020 0.811765
0.780392 0.964706 0.862745
0.878431 0.980392 0.917647
0.945098 0.992157 0.960784
0.956863 0.992157 0.968627
0.596078 0.925490 0.756863
0.596078 0.921569 0.756863
0.596078 0.921569 0.756863
0.592157 0.921569 0.756863
0.588235 0.921569 0.756863
0.584314 0.917647 0.760784
0.815686 0.949020 0.870588
0.968627 0.984314 0.972549
0.992157 0.996078 0.992157
