public/assets/luts/lutCreatorJs.cube
#Generated by lutCreator.js
#Coded by SirSerch
#https://github.com/SirSerch/LutCreatorJs
TITLE lutCreatorJs_25
LUT_3D_SIZE 5
0.078431 0.078431 0.078431
0.078431 0.078431 0.078431
0.078431 0.078431 0.078431
0.078431 0.078431 0.078431
0.152941 0.129412 0.086275
0.078431 0.078431 0.078431
0.078431 0.078431 0.078431
0.078431 0.078431 0.078431
0.078431 0.078431 0.078431
0.290196 0.266667 0.184314
0.149020 0.164706 0.094118
0.243137 0.266667 0.168627
0.298039 0.305882 0.200000
0.356863 0.356863 0.239216
0.803922 0.796078 0.647059
0.662745 0.709804 0.509804
0.670588 0.721569 0.521569
0.796078 0.831373 0.682353
0.913725 0.925490 0.819608
0.972549 0.976471 0.905882
0.670588 0.713725 0.517647
0.658824 0.701961 0.505882
0.643137 0.678431 0.490196
0.886275 0.886275 0.772549
0.945098 0.929412 0.839216
0.078431 0.078431 0.078431
0.078431 0.078431 0.078431
0.078431 0.078431 0.078431
0.078431 0.078431 0.078431
0.101961 0.101961 0.074510
0.078431 0.078431 0.078431
0.078431 0.078431 0.078431
0.078431 0.078431 0.078431
0.078431 0.078431 0.078431
0.184314 0.188235 0.133333
0.101961 0.129412 0.070588
0.160784 0.196078 0.105882
0.192157 0.219608 0.133333
0.250980 0.262745 0.188235
0.584314 0.592157 0.439216
0.588235 0.654902 0.443137
0.686275 0.752941 0.552941
0.752941 0.800000 0.635294
0.882353 0.901961 0.792157
0.956863 0.960784 0.886275
0.682353 0.737255 0.537255
0.678431 0.733333 0.533333
0.666667 0.717647 0.521569
0.882353 0.886275 0.780392
0.937255 0.921569 0.839216
0.078431 0.078431 0.078431
0.078431 0.078431 0.078431
0.078431 0.078431 0.078431
0.078431 0.078431 0.078431
0.074510 0.074510 0.074510
0.078431 0.078431 0.078431
0.078431 0.078431 0.078431
0.078431 0.078431 0.078431
0.078431 0.078431 0.078431
0.152941 0.168627 0.141176
0.094118 0.152941 0.082353
0.164706 0.231373 0.141176
0.196078 0.250980 0.164706
0.239216 0.278431 0.200000
0.549020 0.576471 0.478431
0.611765 0.721569 0.509804
0.666667 0.764706 0.572549
0.764706 0.835294 0.682353
0.858824 0.894118 0.792157
0.952941 0.960784 0.909804
0.643137 0.733333 0.529412
0.639216 0.725490 0.525490
0.627451 0.709804 0.513725
0.854902 0.866667 0.792157
0.929412 0.921569 0.866667
0.078431 0.078431 0.078431
0.078431 0.078431 0.078431
0.066667 0.094118 0.090196
0.000000 0.133333 0.113725
0.015686 0.203922 0.172549
0.023529 0.121569 0.101961
0.007843 0.129412 0.109804
0.000000 0.152941 0.121569
0.000000 0.176471 0.137255
0.113725 0.258824 0.219608
0.000000 0.247059 0.164706
0.000000 0.258824 0.172549
0.047059 0.282353 0.196078
0.168627 0.325490 0.247059
0.372549 0.474510 0.403922
0.427451 0.682353 0.474510
0.521569 0.741176 0.549020
0.674510 0.823529 0.670588
0.811765 0.894118 0.796078
0.941176 0.960784 0.929412
0.533333 0.725490 0.517647
0.529412 0.717647 0.513725
0.525490 0.698039 0.505882
0.756863 0.811765 0.729412
0.941176 0.941176 0.929412
0.000000 0.592157 0.666667
0.000000 0.627451 0.686275
0.000000 0.678431 0.721569
0.000000 0.729412 0.749020
0.000000 0.800000 0.780392
0.000000 0.776471 0.737255
0.000000 0.788235 0.745098
0.000000 0.811765 0.760784
0.000000 0.831373 0.760784
0.000000 0.854902 0.756863
0.000000 0.890196 0.725490
0.000000 0.886275 0.725490
0.000000 0.890196 0.741176
0.364706 0.894118 0.772549
0.658824 0.917647 0.831373
0.541176 0.937255 0.772549
0.588235 0.937255 0.784314
0.662745 0.945098 0.811765
0.776471 0.952941 0.862745
0.960784 0.992157 0.968627
0.596078 0.925490 0.756863
0.596078 0.921569 0.756863
0.588235 0.921569 0.756863
0.815686 0.949020 0.870588
0.992157 0.996078 0.992157
